packages/core/src/svg/icon-house.svg

<?xml version="1.0" encoding="UTF-8"?>
<svg xmlns="http://www.w3.org/2000/svg" width="100%" height="100%" viewBox="0 0 54 57">
  <g stroke="none" stroke-width="1" fill-rule="evenodd">
    <g transform="translate(-930.000000, -654.000000)">
      <g transform="translate(930.000000, 653.000000)">
        <path d="M47.1078235,37.7164333 L50.9691471,41.5621556 L53.8065,38.7346556 L27.0425294,12.0804333 L0.280176471,38.7362667 L3.11752941,41.5621556 L6.97561765,37.7164333 L6.97561765,57.5169889 L47.1078235,57.5169889 L47.1078235,37.7164333 Z M23.0307647,53.5198222 L31.0559118,53.5198222 L31.0559118,40.2265444 L23.0307647,40.2265444 L23.0307647,53.5198222 Z M35.0692941,53.5198222 L35.0692941,36.2309889 L19.0173824,36.2309889 L19.0173824,53.5198222 L10.9906176,53.5198222 L10.9906176,33.7192667 L27.0425294,17.7322111 L43.0944412,33.7192667 L43.0944412,53.5198222 L35.0692941,53.5198222 Z"></path>
        <path d="M43.7635,22.8953389 L47.7752647,22.8953389 C47.7752647,19.4056722 45.9667353,17.6060611 44.5124706,16.1576722 C43.2539412,14.9058389 42.4224706,14.0777278 42.4224706,12.2426722 C42.4224706,10.4043944 43.2523235,9.57789444 44.5108529,8.32606111 C45.9667353,6.87928333 47.7752647,5.07645 47.7752647,1.58356111 L43.7635,1.58356111 C43.7635,3.42022778 42.9320294,4.24833889 41.6751176,5.49856111 C40.2192353,6.94856111 38.4074706,8.74978333 38.4074706,12.2426722 C38.4074706,15.7371722 40.2208529,17.5383944 41.6751176,18.9851722 C42.9336471,20.2370056 43.7635,21.0618944 43.7635,22.8953389"></path>
      </g>
    </g>
  </g>
</svg>

<?xml version="1.0" encoding="UTF-8"?><svg viewBox="0 0 54 57" xmlns="http://www.w3.org/2000/svg"><g fill-rule="evenodd"><g transform="translate(-930 -654)"><g transform="translate(930 653)"><path d="m47.108 37.716 3.8613 3.8457 2.8374-2.8275-26.764-26.654-26.762 26.656 2.8374 2.8259 3.8581-3.8457v19.801h40.132v-19.801zm-24.077 15.803h8.0251v-13.293h-8.0251v13.293zm12.039 0v-17.289h-16.052v17.289h-8.0268v-19.801l16.052-15.987 16.052 15.987v19.801h-8.0251z"/><path d="m43.764 22.895h4.0118c0-3.4897-1.8085-5.2893-3.2628-6.7377-1.2585-1.2518-2.09-2.0799-2.09-3.915 0-1.8383 0.82985-2.6648 2.0884-3.9166 1.4559-1.4468 3.2644-3.2496 3.2644-6.7425h-4.0118c0 1.8367-0.83147 2.6648-2.0884 3.915-1.4559 1.45-3.2676 3.2512-3.2676 6.7441 0 3.4945 1.8134 5.2957 3.2676 6.7425 1.2585 1.2518 2.0884 2.0767 2.0884 3.9102"/></g></g></g></svg>
